X: 1
T: LAFRICAN'S -- JIG
B: Ryan's Mammoth Collection of Fiddle Tunes
R: jig
M: 6/8
L: 1/8
Z: Contributed 20010527155241 by John Chambers jc:trillian.mit.edu
K: D
ud \
| AFD DFA | AFA B2d | AFD DFA | fdB B2d \
| AFD DFA | AFA B2d | def gfe fdd d2 :|
|: uf \
| afd fed | ecd ecA | ddd fdd | fdB B2d \
| ded fdd | edd fdd | cef gfe | fdd d2 :|
